build/img/sprite/icon-phone.svg

<svg baseProfile="tiny" xmlns="http://www.w3.org/2000/svg" width="24" height="24"><path d="M20.741 17.218l-.13-.162c-1.029-1.301-1.889-1.978-2.627-2.067-.638-.087-1.255.354-1.911.808l-.701.438a1.515 1.515 0 01-.245.099c-.41.116-1.445.184-2.031-.352-.682-.624-1.74-1.766-2.563-2.764-.786-1.033-1.65-2.321-2.101-3.132-.381-.687-.062-1.648.151-2.004.042-.07.097-.139.158-.207l.618-.571c.009-.009.013-.02.021-.028.006-.006.016-.004.023-.009.558-.471 1.135-.956 1.214-1.579.093-.732-.362-1.722-1.393-3.022l-.126-.162C8.46 1.686 7.495.449 6.109.653a3.876 3.876 0 00-1.534.582c-.005.003-.008.009-.012.012-.004.003-.009.003-.013.006l-.699.518c-.007.004-.011.013-.018.019-.005.005-.013.006-.019.011a9.309 9.309 0 00-.242.21c-.709.632-2.244 2.467-1.197 5.861.676 2.192 2.07 4.75 4.041 7.412l-.019.016 1.087 1.354.009-.007c2.137 2.528 4.312 4.482 6.305 5.665 1.33.79 2.492 1.051 3.448 1.051a4.798 4.798 0 002.611-.746l.284-.19c.032-.022.055-.053.078-.081l.619-.466c.007-.006.011-.014.018-.02.003-.003.008-.002.012-.005.44-.402.745-.823.957-1.322.549-1.279-.434-2.504-1.084-3.315zm.349 3.001a2.95 2.95 0 01-.754 1.038l-.921.693c-.834.542-2.617 1.212-5.207-.326-1.993-1.183-4.187-3.183-6.346-5.784l-.584-.738C5.245 12.406 3.815 9.824 3.14 7.636c-.877-2.845.228-4.371.968-5.03.075-.068.15-.131.224-.194l.003-.003.671-.497a3.05 3.05 0 011.221-.468c.929-.14 1.685.84 2.24 1.552l.13.165C9.749 4.614 9.86 5.305 9.824 5.587c-.04.313-.516.714-.936 1.067l-.059.05-.005.007-.009.005-.639.591-.01.014c-.004.005-.012.007-.016.012a2.246 2.246 0 00-.253.337c-.359.601-.698 1.843-.163 2.804.467.84 1.356 2.167 2.173 3.239.854 1.036 1.943 2.212 2.649 2.857.529.483 1.265.645 1.902.645.341 0 .654-.047.891-.114.125-.036.254-.088.387-.153.008-.004.012-.011.02-.016.004-.002.01-.001.014-.004l.742-.464c.024-.016.04-.037.06-.057l.009.01c.457-.317.978-.689 1.304-.635.289.035.945.313 2.099 1.77l.133.167c.562.701 1.332 1.661.973 2.5z"/></svg>

<svg version="1.1" baseProfile="tiny" id="Layer_1" xmlns="http://www.w3.org/2000/svg" xmlns:xlink="http://www.w3.org/1999/xlink"
	 x="0px" y="0px" width="24px" height="24px" viewBox="0 0 24 24" xml:space="preserve">
<path d="M20.741,17.218l-0.13-0.162c-1.029-1.301-1.889-1.978-2.627-2.067c-0.638-0.087-1.255,0.354-1.911,0.808l-0.701,0.438
	c-0.084,0.042-0.167,0.076-0.245,0.099c-0.41,0.116-1.445,0.184-2.031-0.352c-0.682-0.624-1.74-1.766-2.563-2.764
	c-0.786-1.033-1.65-2.321-2.101-3.132C8.051,9.399,8.37,8.438,8.583,8.082c0.042-0.07,0.097-0.139,0.158-0.207l0.618-0.571
	c0.009-0.009,0.013-0.02,0.021-0.028C9.386,7.27,9.396,7.272,9.403,7.267c0.558-0.471,1.135-0.956,1.214-1.579
	c0.093-0.732-0.362-1.722-1.393-3.022L9.098,2.504C8.46,1.686,7.495,0.449,6.109,0.653C5.564,0.734,5.077,0.92,4.575,1.235
	C4.57,1.238,4.567,1.244,4.563,1.247C4.559,1.25,4.554,1.25,4.55,1.253L3.851,1.771C3.844,1.775,3.84,1.784,3.833,1.79
	C3.828,1.795,3.82,1.796,3.814,1.801c-0.081,0.068-0.162,0.138-0.242,0.21C2.863,2.643,1.328,4.478,2.375,7.872
	c0.676,2.192,2.07,4.75,4.041,7.412L6.397,15.3l1.087,1.354l0.009-0.007c2.137,2.528,4.312,4.482,6.305,5.665
	c1.33,0.79,2.492,1.051,3.448,1.051c1.258,0,2.159-0.452,2.611-0.746l0.284-0.19c0.032-0.022,0.055-0.053,0.078-0.081l0.619-0.466
	c0.007-0.006,0.011-0.014,0.018-0.02c0.003-0.003,0.008-0.002,0.012-0.005c0.44-0.402,0.745-0.823,0.957-1.322
	C22.374,19.254,21.391,18.029,20.741,17.218z M21.09,20.219c-0.165,0.388-0.406,0.718-0.754,1.038l-0.921,0.693
	c-0.834,0.542-2.617,1.212-5.207-0.326c-1.993-1.183-4.187-3.183-6.346-5.784l-0.584-0.738c-2.033-2.696-3.463-5.278-4.138-7.466
	c-0.877-2.845,0.228-4.371,0.968-5.03c0.075-0.068,0.15-0.131,0.224-0.194l0.003-0.003l0.671-0.497
	C5.414,1.654,5.792,1.51,6.227,1.444c0.929-0.14,1.685,0.84,2.24,1.552l0.13,0.165C9.749,4.614,9.86,5.305,9.824,5.587
	c-0.04,0.313-0.516,0.714-0.936,1.067l-0.059,0.05C8.827,6.706,8.826,6.709,8.824,6.711C8.821,6.713,8.818,6.714,8.815,6.716
	L8.176,7.307C8.172,7.311,8.17,7.316,8.166,7.321S8.154,7.328,8.15,7.333C8.051,7.444,7.966,7.555,7.897,7.67
	c-0.359,0.601-0.698,1.843-0.163,2.804c0.467,0.84,1.356,2.167,2.173,3.239c0.854,1.036,1.943,2.212,2.649,2.857
	c0.529,0.483,1.265,0.645,1.902,0.645c0.341,0,0.654-0.047,0.891-0.114c0.125-0.036,0.254-0.088,0.387-0.153
	c0.008-0.004,0.012-0.011,0.02-0.016c0.004-0.002,0.01-0.001,0.014-0.004l0.742-0.464c0.024-0.016,0.04-0.037,0.06-0.057l0.009,0.01
	c0.457-0.317,0.978-0.689,1.304-0.635c0.289,0.035,0.945,0.313,2.099,1.77l0.133,0.167C20.679,18.42,21.449,19.38,21.09,20.219z"/>
</svg>
